src/assets/image/icons/scalability.svg

<svg xmlns="http://www.w3.org/2000/svg" width="62" height="62" fill="none"><path fill="url(#a)" d="M33 32a1 1 0 0 0-1-1h-2c-1.654 0-3-1.346-3-3s1.346-3 3-3v-2h2v2c1.654 0 3 1.346 3 3h-2a1 1 0 0 0-1-1h-2a1 1 0 0 0 0 2h2c1.654 0 3 1.346 3 3s-1.346 3-3 3v2h-2v-2c-1.654 0-3-1.346-3-3h2a1 1 0 0 0 1 1h2a1 1 0 0 0 1-1m27 26.586L49.707 48.293l-1.414 1.414L58.586 60H56v2h6v-6h-2zM60 49h-2v1.586l-5.293-5.293-1.414 1.414L60 55.414zm-14.707 3.707L50.586 58H48v2h7.414l-8.707-8.707zM2 3.414l10.293 10.293 1.414-1.414L3.414 2H6V0H0v6h2zM2 13h2v-1.586l5.293 5.293 1.414-1.414L2 6.586zM14 2H6.586l8.707 8.707 1.414-1.414L11.414 4H14zm16-2h32v32H42.002l.323 4.524C45.399 38.255 50 41.583 50 46v1h-7.815c-.461.173-1.773.638-3.635 1.079l.592 2.363-.587.391c-.122.082-2.814 1.843-6.555 2.126V62H0V30h20.141l.128-1.784A28.65 28.65 0 0 1 28.586 10c.397-.397.89-.657 1.414-.81zm-3 15h8a26.6 26.6 0 0 0-3-3.586c-.535-.533-1.465-.533-2 0A26.6 26.6 0 0 0 27 15m-4.737 13.358-.932 13.051C23.056 41.977 26.757 43 31 43s7.944-1.023 9.669-1.591l-.932-13.051A26.64 26.64 0 0 0 36.268 17H25.732a26.64 26.64 0 0 0-3.469 11.358M19.069 45l.432-6.045c-2.243 1.413-4.824 3.531-5.389 6.045zM30 60v-7.042c-3.74-.283-6.433-2.044-6.555-2.126l-.587-.391.592-2.363c-1.861-.441-3.174-.905-3.635-1.079H12v-1c0-4.417 4.601-7.745 7.675-9.476L19.998 32H2v28zm6.59-11.515C34.935 48.78 33.03 49 31 49s-3.935-.22-5.59-.515l-.256 1.025C26.165 50.04 28.361 51 31 51s4.834-.96 5.847-1.49zm4.358-3.169-.133-1.855C38.819 44.08 35.154 45 31 45s-7.819-.92-9.816-1.539l-.132 1.854C22.586 45.834 26.529 47 31 47c4.483 0 8.418-1.165 9.948-1.684m1.551-6.361L42.931 45h4.956c-.564-2.514-3.145-4.633-5.388-6.045M32 2v7.19a3.25 3.25 0 0 1 1.414.81 28.65 28.65 0 0 1 8.317 18.216L41.859 30H60V2zm24 6h2V4h-8v2h6zm0 4h2v-2h-2zm0 8h2v-2h-2zm0-4h2v-2h-2zM6 54H4v4h8v-2H6zm0-4H4v2h2zm0-4H4v2h2zm0-4H4v2h2z"/><defs><linearGradient id="a" x1="31" x2="31" y1="62" y2="0" gradientUnits="userSpaceOnUse"><stop stop-color="#6582FD"/><stop offset="1" stop-color="#E13E91"/></linearGradient></defs></svg>

<svg width="62" height="62" viewBox="0 0 62 62" fill="none" xmlns="http://www.w3.org/2000/svg">
<path d="M33 32C33 31.448 32.552 31 32 31H30C28.346 31 27 29.654 27 28C27 26.346 28.346 25 30 25V23H32V25C33.654 25 35 26.346 35 28H33C33 27.448 32.552 27 32 27H30C29.448 27 29 27.448 29 28C29 28.552 29.448 29 30 29H32C33.654 29 35 30.346 35 32C35 33.654 33.654 35 32 35V37H30V35C28.346 35 27 33.654 27 32H29C29 32.552 29.448 33 30 33H32C32.552 33 33 32.552 33 32ZM60 58.586L49.707 48.293L48.293 49.707L58.586 60H56V62H62V56H60V58.586ZM60 49H58V50.586L52.707 45.293L51.293 46.707L60 55.414V49ZM45.293 52.707L50.586 58H48V60H55.414L46.707 51.293L45.293 52.707ZM2 3.414L12.293 13.707L13.707 12.293L3.414 2H6V0H0V6H2V3.414ZM2 13H4V11.414L9.293 16.707L10.707 15.293L2 6.586V13ZM14 2H6.586L15.293 10.707L16.707 9.293L11.414 4H14V2ZM30 0H62V32H42.002L42.325 36.524C45.399 38.255 50 41.583 50 46V47H42.185C41.724 47.173 40.412 47.638 38.55 48.079L39.142 50.442L38.555 50.833C38.433 50.915 35.741 52.676 32 52.959V62H0V30H20.141L20.269 28.216C20.759 21.342 23.713 14.873 28.586 10C28.983 9.603 29.476 9.343 30 9.19V0ZM27 15H35C34.111 13.727 33.111 12.525 32 11.414C31.465 10.881 30.535 10.881 30 11.414C28.889 12.525 27.889 13.727 27 15ZM22.263 28.358L21.331 41.409C23.056 41.977 26.757 43 31 43C35.243 43 38.944 41.977 40.669 41.409L39.737 28.358C39.449 24.33 38.249 20.453 36.268 17H25.732C23.751 20.453 22.551 24.33 22.263 28.358ZM19.069 45L19.501 38.955C17.258 40.368 14.677 42.486 14.112 45H19.069ZM30 60V52.958C26.26 52.675 23.567 50.914 23.445 50.832L22.858 50.441L23.45 48.078C21.589 47.637 20.276 47.173 19.815 46.999H12V45.999C12 41.582 16.601 38.254 19.675 36.523L19.998 32H2V60H30ZM36.59 48.485C34.935 48.78 33.03 49 31 49C28.97 49 27.065 48.78 25.41 48.485L25.154 49.51C26.165 50.04 28.361 51 31 51C33.639 51 35.834 50.04 36.847 49.51L36.59 48.485ZM40.948 45.316L40.815 43.461C38.819 44.08 35.154 45 31 45C26.846 45 23.181 44.08 21.184 43.461L21.052 45.315C22.586 45.834 26.529 47 31 47C35.483 47 39.418 45.835 40.948 45.316ZM42.499 38.955L42.931 45H47.887C47.323 42.486 44.742 40.367 42.499 38.955ZM32 2V9.19C32.524 9.342 33.017 9.602 33.414 10C38.287 14.873 41.241 21.342 41.731 28.216L41.859 30H60V2H32ZM56 8H58V4H50V6H56V8ZM56 12H58V10H56V12ZM56 20H58V18H56V20ZM56 16H58V14H56V16ZM6 54H4V58H12V56H6V54ZM6 50H4V52H6V50ZM6 46H4V48H6V46ZM6 42H4V44H6V42Z" fill="url(#paint0_linear_43_2141)"/>
<defs>
<linearGradient id="paint0_linear_43_2141" x1="31" y1="62" x2="31" y2="0" gradientUnits="userSpaceOnUse">
<stop stop-color="#6582FD"/>
<stop offset="1" stop-color="#E13E91"/>
</linearGradient>
</defs>
</svg>
